X:1
T:Title
%%score { ( 1 4 ) | ( 2 3 ) }
L:1/8
Q:1/4=110
M:3/4
K:D
V:1 treble nm="Church Organ"
V:4 treble 
V:2 bass 
V:3 bass 
V:1
 z2 z2 D2 | A4 d2 | d2 c2 A2 | A2 G2 F2 | [DF]2 [CE]2 [A,F]2 | [DB]4 [A,EA]2 | A4 z2 | %7
 [A,CA]4 [A,EA]2 | D2- [G,DG]2 [DB]2 | A4 A2 | B2 [Gc]2 [Fd]2 | [Fd]2 c2 A2 | d2 F2 [A,DA]2 | %13
 D4[K:bass] z2 | [F,D]4 z2 |] %15
V:2
 z2 z2 [D,F,]2 | [D,F,D]4 [F,A,D]2 | F2 z2[K:bass] z2 | [F,DF]2 [E,A,C]2 [D,A,D]2 | %4
 [A,,A,]4 [D,F,]2 | F,2 z2 z2 | D,2 E,2 E,2 | A,,4 C,2 | D,2 B,,2 [G,,G,]2 | [D,F,D]4 [F,D]2 | %10
 [G,B,D]2 [E,A,]2 [D,A,]2 | z2 E2 [F,A,C]2 | F,2 z2 z2 | G,,2 A,,2 A,,2 | D,4 z2 |] %15
V:3
 x6 | x6 | A,2- [A,E]2[K:bass] [G,CE]2 | x6 | x6 | B,,2- [B,,^G,]2 C,2 | x6 | x6 | x6 | x6 | x6 | %11
 A,4 z2 | [A,D]2- [D,A,D]2 F,,2 | x6 | x6 |] %15
V:4
 x6 | x6 | x6 | x6 | x6 | x6 | [DF]2 [CE]2 [B,D^G]2 | x6 | [A,F]2 z2 z2 | x6 | x6 | x6 | x6 | %13
 [B,G]2 [A,F]2[K:bass] [G,CE]2 | x6 |] %15

